code/frontend/src/assets/mic-outline.svg

<svg width="14" height="20" viewBox="0 0 14 20" fill="none" xmlns="http://www.w3.org/2000/svg">
<path d="M13.25 9C13.6297 9 13.9435 9.28215 13.9932 9.64823L14 9.75V10.25C14 13.8094 11.245 16.7254 7.75098 16.9817L7.75 19.25C7.75 19.6642 7.41421 20 7 20C6.6203 20 6.30651 19.7178 6.25685 19.3518L6.25 19.25L6.25002 16.9818C2.83323 16.7316 0.122835 13.938 0.00406027 10.4863L0 10.25V9.75C0 9.33579 0.335786 9 0.75 9C1.1297 9 1.44349 9.28215 1.49315 9.64823L1.5 9.75V10.25C1.5 13.077 3.73445 15.3821 6.5336 15.4956L6.75 15.5H7.25C10.077 15.5 12.3821 13.2656 12.4956 10.4664L12.5 10.25V9.75C12.5 9.33579 12.8358 9 13.25 9ZM7 0C9.20914 0 11 1.79086 11 4V10C11 12.2091 9.20914 14 7 14C4.79086 14 3 12.2091 3 10V4C3 1.79086 4.79086 0 7 0ZM7 1.5C5.61929 1.5 4.5 2.61929 4.5 4V10C4.5 11.3807 5.61929 12.5 7 12.5C8.38071 12.5 9.5 11.3807 9.5 10V4C9.5 2.61929 8.38071 1.5 7 1.5Z" fill="#0F6CBD"/>
</svg>

<?xml version="1.0" encoding="UTF-8"?>
<svg id="Layer_1" xmlns="http://www.w3.org/2000/svg" version="1.1" viewBox="0 0 14 20">
  <!-- Generator: Adobe Illustrator 29.1.0, SVG Export Plug-In . SVG Version: 2.1.0 Build 142)  -->
  <defs>
    <style>
      .st0 {
        fill: #00ac20;
      }
    </style>
  </defs>
  <path class="st0" d="M13.2,9c.4,0,.7.3.7.6h0v.6c0,3.6-2.8,6.5-6.2,6.7v2.3c0,.4-.3.8-.8.8s-.7-.3-.7-.6h0c0-.1,0-2.4,0-2.4C2.8,16.7.1,13.9,0,10.5v-.2s0-.5,0-.5c0-.4.3-.8.8-.8s.7.3.7.6h0v.6c0,2.8,2.2,5.1,5,5.2h.2s.5,0,.5,0c2.8,0,5.1-2.2,5.2-5v-.2s0-.5,0-.5c0-.4.3-.8.8-.8ZM7,0c2.2,0,4,1.8,4,4v6c0,2.2-1.8,4-4,4s-4-1.8-4-4v-6C3,1.8,4.8,0,7,0ZM7,1.5c-1.4,0-2.5,1.1-2.5,2.5v6c0,1.4,1.1,2.5,2.5,2.5s2.5-1.1,2.5-2.5v-6c0-1.4-1.1-2.5-2.5-2.5Z"/>
</svg>
